svg/fluentui-system-icons/ic_fluent_mail_inbox_arrow_down_20_regular.svg

<svg width="20" height="20" viewBox="0 0 20 20" fill="none" xmlns="http://www.w3.org/2000/svg">
<path d="M8.0224 5H6C4.89545 5 4 5.89539 4 7V11H7.5C7.77594 11 7.99963 11.2235 8 11.4994L8.00031 11.5115C8.00073 11.5238 8.00165 11.5443 8.0036 11.5718C8.00757 11.6268 8.01562 11.7087 8.03229 11.8085C8.06586 12.01 8.13214 12.2712 8.2597 12.5264C8.38629 12.7795 8.56836 13.0176 8.83203 13.1934C9.09259 13.3671 9.46246 13.5 10 13.5C10.5375 13.5 10.9074 13.3671 11.168 13.1934C11.4316 13.0176 11.6137 12.7795 11.7403 12.5264C11.8162 12.3745 11.8704 12.2206 11.9089 12.0784C11.9351 11.9816 11.9541 11.8901 11.9677 11.8085C11.9844 11.7087 11.9924 11.6268 11.9964 11.5718C11.9984 11.5443 11.9993 11.5238 11.9997 11.5115L12 11.4991C12 11.223 12.2239 11 12.5 11H16V10.4003C16.3578 10.2174 16.6929 9.99646 17 9.7428V15C17 16.6569 15.6569 18 14 18H6C4.34314 18 3 16.6569 3 15V7C3 5.34314 4.34314 4 6 4H8.20703C8.11591 4.32227 8.05334 4.65662 8.0224 5ZM7.05048 12H4V15C4 16.1046 4.89545 17 6 17H14C15.1046 17 16 16.1046 16 15V12H12.9495C12.9035 12.2643 12.8134 12.6161 12.6347 12.9736C12.4488 13.3455 12.1621 13.7324 11.7227 14.0254C11.2801 14.3204 10.7125 14.5 10 14.5C9.28754 14.5 8.71991 14.3204 8.27734 14.0254C7.83789 13.7324 7.55121 13.3455 7.3653 12.9736C7.18658 12.6161 7.0965 12.2643 7.05048 12ZM13.5 10C15.9853 10 18 7.98528 18 5.5C18 3.01472 15.9853 1 13.5 1C11.0147 1 9 3.01472 9 5.5C9 7.98528 11.0147 10 13.5 10ZM11.1464 5.85355C10.9512 5.65829 10.9512 5.34171 11.1464 5.14645C11.3417 4.95118 11.6583 4.95118 11.8536 5.14645L13 6.29289V3.5C13 3.22386 13.2239 3 13.5 3C13.7761 3 14 3.22386 14 3.5V6.29289L15.1464 5.14645C15.3417 4.95118 15.6583 4.95118 15.8536 5.14645C16.0488 5.34171 16.0488 5.65829 15.8536 5.85355L13.8536 7.85355C13.8056 7.90149 13.7504 7.93766 13.6914 7.96206C13.6333 7.98615 13.5697 7.9996 13.503 7.99999L13.5 8L13.497 7.99999C13.4303 7.9996 13.3667 7.98615 13.3086 7.96206C13.2505 7.93802 13.196 7.90256 13.1486 7.85567L13.146 7.85316L11.1464 5.85355Z" fill="#212121"/>
</svg>

<svg xmlns="http://www.w3.org/2000/svg" width="20" height="20"><path d="M8.022 5H6a2 2 0 0 0-2 2v4h3.5a.5.5 0 0 1 .5.5v.011l.004.06a2.574 2.574 0 0 0 .256.955c.126.254.308.492.572.667.26.174.63.307 1.168.307.537 0 .907-.133 1.168-.307.264-.175.446-.413.572-.667.076-.152.13-.305.169-.448a2.798 2.798 0 0 0 .09-.566l.001-.013a.5.5 0 0 1 .5-.499H16v-.6a5.505 5.505 0 0 0 1-.657V15a3 3 0 0 1-3 3H6a3 3 0 0 1-3-3V7a3 3 0 0 1 3-3h2.207a5.482 5.482 0 0 0-.185 1Zm-.972 7H4v3a2 2 0 0 0 2 2h8a2 2 0 0 0 2-2v-3h-3.05a3.563 3.563 0 0 1-.315.974 2.693 2.693 0 0 1-.912 1.051c-.443.295-1.01.475-1.723.475-.712 0-1.28-.18-1.723-.475a2.693 2.693 0 0 1-.912-1.051A3.563 3.563 0 0 1 7.05 12Zm6.45-2a4.5 4.5 0 1 0 0-9 4.5 4.5 0 0 0 0 9Zm-2.354-4.146a.5.5 0 0 1 .708-.708L13 6.293V3.5a.5.5 0 0 1 1 0v2.793l1.146-1.147a.5.5 0 0 1 .708.708l-2 2a.499.499 0 0 1-.351.146h-.006a.498.498 0 0 1-.348-.144l-.003-.003-2-2Z"/></svg>
